src/objects/clothing/1F462.svg

<svg id="emoji" viewBox="0 0 72 72" xmlns="http://www.w3.org/2000/svg">
  <g id="grid">
    <path fill="#b3b3b3" d="M68,4V68H4V4H68m4-4H0V72H72V0Z"/>
    <path fill="none" stroke="#00a5ff" stroke-miterlimit="10" stroke-width="0.1" d="M12.923,10.9583H59.0769A1.9231,1.9231,0,0,1,61,12.8814V59.0352a1.9231,1.9231,0,0,1-1.9231,1.9231H12.9231A1.9231,1.9231,0,0,1,11,59.0352V12.8813A1.923,1.923,0,0,1,12.923,10.9583Z"/>
    <rect x="16" y="4" rx="2.2537" width="40" height="64" fill="none" stroke="#00a5ff" stroke-miterlimit="10" stroke-width="0.1"/>
    <rect x="16" y="4" rx="2.2537" width="40" height="64" transform="translate(72) rotate(90)" fill="none" stroke="#00a5ff" stroke-miterlimit="10" stroke-width="0.1"/>
    <circle cx="36" cy="36" r="29" fill="none" stroke="#00a5ff" stroke-miterlimit="10" stroke-width="0.1"/>
  </g>
  <g id="color">
    <polyline fill="#6A462F" stroke="none" points="9.3692,49.9058 10.0428,60.9583 19.8879,61.2288 21.0821,50.1763"/>
    <polyline fill="#6A462F" stroke="none" stroke-linecap="round" stroke-linejoin="round" stroke-miterlimit="10" stroke-width="2" points="10.3692,52.9798 11.0428,60.9583 18.8821,60.9583 19.5557,54.7243"/>
    <path fill="#A57939" stroke="none" stroke-linecap="round" stroke-linejoin="round" stroke-miterlimit="10" stroke-width="2" d="M50.3692,52.6627c5.0161,0.1894,5,8.2957,5,8.2957H30.3735l-8.5938-11.0526H10.3692c1.0244-3.1706,5.4677-8.176,6.5615-11.8457 c3.613-12.1211-7.7259-27.1017-7.7259-27.1017C21.6159,1.0211,41.6484,4,41.6484,4s-5.2797,8.2972-6.2792,22.5752 c-1.0161,14.5157-0.0139,18.8882,3.2856,22.9289C41.9544,53.5448,45.3531,52.4733,50.3692,52.6627z"/>
    <line x1="22.2778" x2="26.0361" y1="9.1397" y2="25.3132" fill="#A57939" stroke="none" stroke-linecap="round" stroke-linejoin="round" stroke-miterlimit="10" stroke-width="2"/>
  </g>
  <g id="hair"/>
  <g id="skin"/>
  <g id="skin-shadow"/>
  <g id="line">
    <polyline fill="none" stroke="#000000" stroke-linecap="round" stroke-linejoin="round" stroke-miterlimit="10" stroke-width="2" points="10.3692,52.9798 11.0428,60.9583 18.8821,60.9583 19.5557,54.7243"/>
    <path fill="none" stroke="#000000" stroke-linecap="round" stroke-linejoin="round" stroke-miterlimit="10" stroke-width="2" d="M50.3692,52.6627c5.0161,0.1894,5,8.2957,5,8.2957H30.3735l-8.5938-11.0526H10.3692c1.0244-3.1706,5.4677-8.176,6.5615-11.8457 c3.613-12.1211-7.7259-27.1017-7.7259-27.1017C21.6159,1.0211,41.6484,4,41.6484,4s-5.2797,8.2972-6.2792,22.5752 c-1.0161,14.5157-0.0139,18.8882,3.2856,22.9289C41.9544,53.5448,45.3531,52.4733,50.3692,52.6627z"/>
    <line x1="22.2778" x2="26.0361" y1="9.1397" y2="25.3132" fill="none" stroke="#000000" stroke-linecap="round" stroke-linejoin="round" stroke-miterlimit="10" stroke-width="2"/>
  </g>
</svg>

<svg viewBox="0 0 72 72" xmlns="http://www.w3.org/2000/svg"><path fill="#b3b3b3" d="M68 4v64H4V4h64m4-4H0v72h72V0z"/><path fill="none" stroke="#00a5ff" stroke-miterlimit="10" stroke-width=".1" d="M12.923 10.958h46.154A1.923 1.923 0 0161 12.881v46.154a1.923 1.923 0 01-1.923 1.923H12.923A1.923 1.923 0 0111 59.035V12.881a1.923 1.923 0 011.923-1.923z"/><rect x="16" y="4" rx="2.254" width="40" height="64" fill="none" stroke="#00a5ff" stroke-miterlimit="10" stroke-width=".1"/><rect x="16" y="4" rx="2.254" width="40" height="64" transform="rotate(90 36 36)" fill="none" stroke="#00a5ff" stroke-miterlimit="10" stroke-width=".1"/><circle cx="36" cy="36" r="29" fill="none" stroke="#00a5ff" stroke-miterlimit="10" stroke-width=".1"/><g stroke-linecap="round" stroke-miterlimit="10" stroke-width="6" stroke="#fff" fill="none" stroke-linejoin="round"><path d="M10.37 52.98l.673 7.978h7.84l.673-6.234"/><path d="M50.37 52.663c5.015.19 5 8.295 5 8.295H30.373L21.78 49.906H10.37c1.024-3.17 5.467-8.176 6.56-11.846 3.614-12.121-7.725-27.102-7.725-27.102C21.615 1.021 41.648 4 41.648 4s-5.28 8.297-6.279 22.575c-1.016 14.516-.014 18.888 3.286 22.93 3.3 4.04 6.698 2.968 11.714 3.158zM22.278 9.14l3.758 16.173"/></g><path fill="#6A462F" d="M9.37 49.906l.673 11.052 9.845.27 1.194-11.052"/><path fill="#6A462F" d="M10.37 52.98l.673 7.978h7.84l.673-6.234"/><path fill="#A57939" d="M50.37 52.663c5.015.19 5 8.295 5 8.295H30.373L21.78 49.906H10.37c1.024-3.17 5.467-8.176 6.56-11.846 3.614-12.121-7.725-27.102-7.725-27.102C21.615 1.021 41.648 4 41.648 4s-5.28 8.297-6.279 22.575c-1.016 14.516-.014 18.888 3.286 22.93 3.3 4.04 6.698 2.968 11.714 3.158zM22.278 9.14l3.758 16.173"/><g fill="none" stroke="#000" stroke-linecap="round" stroke-linejoin="round" stroke-miterlimit="10" stroke-width="2"><path d="M10.37 52.98l.673 7.978h7.84l.673-6.234"/><path d="M50.37 52.663c5.015.19 5 8.295 5 8.295H30.373L21.78 49.906H10.37c1.024-3.17 5.467-8.176 6.56-11.846 3.614-12.121-7.725-27.102-7.725-27.102C21.615 1.021 41.648 4 41.648 4s-5.28 8.297-6.279 22.575c-1.016 14.516-.014 18.888 3.286 22.93 3.3 4.04 6.698 2.968 11.714 3.158zM22.278 9.14l3.758 16.173"/></g></svg>
